X:1
T:Title
%%score { ( 1 3 ) | ( 2 4 ) }
L:1/8
M:4/4
K:Bb
V:1 treble nm="Grand Piano"
V:3 treble 
V:2 bass 
V:4 bass 
V:1
 z4 z2[Q:1/4=106] [B,D][CE] | [DF]2 [FB]2 d2 c2 | [Ec]2 [DB]4 [DA][DB] | c2 B2 A2 G2 | %4
[M:3/4] [DF]6 |[M:1/4] [B,D][CE] |[M:4/4] [DF]2 [FB]2 d2 c2 | c2 B4 dd | [=Ec]2 [EG]2 [EA]2 [EB]2 | %9
[M:3/4] c6 |[M:1/4] cd |[M:4/4] [Ge]2 [Ge]2 d2 c2 | [Ec]2 [DB]4 [DB][_AB] | %13
 [GB]2 [EG]2 [GB]2 [Gc]2 |[M:3/4] [^Fd]6 |[M:1/4] [^Fd][Fd] |[M:4/4] d2 d2 e2 d2 | %17
 [=Ed]2 [Ec]4 [EG][EB] | B2 A2 F2 c2 |[M:3/4] [DB]6 |[M:1/4] F2 |[M:4/4] e6 z2 | d6 z2 | %23
 c2 =B2 c2 [=E_d]2 |[M:3/4] [Fd]6 |[M:1/4] F2 |[M:4/4] e6 z2 | d6 z2 | %28
[M:9/8] G2 [EG]- [EG] [EA]2 [Ec]3 |[M:3/4] [DB]6 |] %30
V:2
 z4 z2 [B,,F,][B,,F,] | [B,,B,]2 [D,B,]2 [F,B,F]2 [F,E]2 | [B,,F,]2 [B,,F,]4 [B,,B,][B,,B,] | %3
 [E,G,E]2 [E,G,E]2 [E,CE]2 [E,B,E]2 |[M:3/4] [B,,B,]6 |[M:1/4] [B,,F,][B,,F,] | %6
[M:4/4] [B,,B,]2 [D,B,]2 [F,B,F]2 [F,A,E]2 | [^F,A,E]2 [G,B,D]4 [G,B,D][G,B,D] | %8
 [C,B,]2 [C,B,]2 [C,A,]2 [C,G,]2 |[M:3/4] [F,A,E]6 |[M:1/4] [F,A,E][F,A,F] | %11
[M:4/4] [F,A,]2 [F,A,]2 [F,B,F]2 [F,E]2 | [B,,F,]2 [B,,F,]4 [B,,B,][B,,B,] | %13
 [E,B,]2 [E,B,]2 [E,B,]2 [E,G,]2 |[M:3/4] [D,A,]6 |[M:1/4] [D,D][D,C] | %16
[M:4/4][K:treble] [G,=B,F]2 [G,B,F]2 [G,B,G]2 [G,B,F]2 | [C,B,]2 [C,G,]4 [C,C][C,C] | %18
 [F,CE]2 [F,CE]2 [F,A,E]2 [F,E]2 |[M:3/4] [B,,F,]6 |[M:1/4] z2 | %21
[M:4/4] [F,A,F]2 [F,A,]2 [F,A,]2 z2 | [B,,B,]2 [B,,B,]2 [B,,B,]2 F,2 | %23
 [F,A,E]2 [F,_A,D]2 [F,=A,E]2 [B,,_A,]2 |[M:3/4] F,2 z2 z2 |[M:1/4] z2 | %26
[M:4/4] [F,A,F]2 [F,A,]2 [F,A,]2 z2 | [B,,B,]2 [B,,B,]2 [B,,B,]2 F,2 | %28
[M:9/8] [E,B,E]2 [C,C]- [C,C] [F,C]2 [F,A,]3 |[M:3/4] [B,,B,]6 |] %30
V:3
 x8 | x8 | x8 | x8 |[M:3/4] x6 |[M:1/4] x2 |[M:4/4] x8 | x8 | x8 |[M:3/4] x6 |[M:1/4] x2 | %11
[M:4/4] x8 | x8 | x8 |[M:3/4] x6 |[M:1/4] x2 |[M:4/4] x8 | x8 | x8 |[M:3/4] x6 |[M:1/4] x2 | %21
[M:4/4] z2 F2 F2 F2 | F2 F2 F2 F2 | x8 |[M:3/4] z2 B,4 |[M:1/4] x2 |[M:4/4] z2 F2 F2 F2 | %27
 F2 F2 F2 F2 |[M:9/8] x9 |[M:3/4] x6 |] %30
V:4
 x8 | x8 | x8 | x8 |[M:3/4] x6 |[M:1/4] x2 |[M:4/4] x8 | x8 | x8 |[M:3/4] x6 |[M:1/4] x2 | %11
[M:4/4] x8 | x8 | x8 |[M:3/4] x6 |[M:1/4] x2 |[M:4/4][K:treble] x8 | x8 | x8 |[M:3/4] x6 | %20
[M:1/4] x2 |[M:4/4] x8 | x8 | x8 |[M:3/4] B,,6 |[M:1/4] x2 |[M:4/4] x8 | x8 |[M:9/8] x9 | %29
[M:3/4] x6 |] %30

